X:1
T: Angus Macrae
C:
R:Strathspey
Q:128
K:D
M:4/4
L:1/16
|:ee3 c3e AA3 c4|dd3 B3d G3d Bd3|ee3 c3e AA3 c4|d3f B3e c2A2 A2a2|
ee3 c3e AA3 c4|dd3 B3d G3d Bd3|ee3 c3e AA3 c4|d3f B3e c2A2 A2e2|
a3f e3a AA3 c3e|g3e d3g GG3 B3g|a3f e3a A3a c3a|d3a B3e c3A A3e|
a3f e3a AA3 c3e|g3e d3g GG3 Bcd2|ee3 c3e Aee2 cee2|dff2 Bee2 c2A2 A4:|
